X:107
T: WIR TRATEN AUF DIE KETTE
N: K2102
O: Europa, Mitteleuropa, Deutschland, Rheinland, Laubenheim
R: Kinder - Lied, Reigen, Tanz - Spiel
M: 4/4
L: 1/8
K: F
F2 | F2A2c2d2 | c4A2z2 |
c2B2A2G2 | F4z2
F2 | F2A2c2d2 | c4A2z2 |
c2B2A2G2 | F4z2
c2 | c2B2A2z2 | c2B2A2z2 |
c2c2d2d2 | c2B2A4 |
c2c2c2A2 | f4z2
cc | c2A2c2c2 | F4z2

@@@ Tune index: 7444
